icons/svg/cog-box.svg

﻿<?xml version="1.0" encoding="utf-8"?>
<!DOCTYPE svg PUBLIC "-//W3C//DTD SVG 1.1//EN" "http://www.w3.org/Graphics/SVG/1.1/DTD/svg11.dtd">
<svg xmlns="http://www.w3.org/2000/svg" xmlns:xlink="http://www.w3.org/1999/xlink" version="1.1" baseProfile="full" width="24" height="24" viewBox="0 0 24.00 24.00" enable-background="new 0 0 24.00 24.00" xml:space="preserve">
	<path fill="#000000" fill-opacity="1" stroke-width="0.2" stroke-linejoin="round" d="M 17.2494,11.9982C 17.2494,12.2302 17.2284,12.4572 17.1994,12.6812L 18.6794,13.8392C 18.8094,13.9451 18.8494,14.1342 18.7614,14.2861L 17.3614,16.7101C 17.2744,16.8621 17.0914,16.9232 16.9334,16.8632L 15.1894,16.1602C 14.8294,16.4371 14.4344,16.6711 14.0074,16.8481L 13.7454,18.7031C 13.7184,18.8701 13.5734,18.9982 13.3994,18.9982L 10.5994,18.9982C 10.4254,18.9982 10.2794,18.8701 10.2534,18.7031L 9.99139,16.8481C 9.56439,16.6721 9.1694,16.4371 8.80838,16.1602L 7.0654,16.8632C 6.90738,16.9232 6.7254,16.8621 6.63739,16.7101L 5.2374,14.2861C 5.14938,14.1342 5.18738,13.9451 5.3194,13.8392L 6.7984,12.6812C 6.76938,12.4572 6.74939,12.2302 6.74939,11.9982C 6.74939,11.7662 6.76938,11.5391 6.7984,11.3151L 5.3194,10.1572C 5.18738,10.0511 5.14938,9.86212 5.2374,9.71014L 6.63739,7.28613C 6.7254,7.13416 6.90738,7.07312 7.0654,7.13312L 8.80838,7.83612C 9.1694,7.55817 9.56439,7.32416 9.99139,7.14716L 10.2534,5.29315C 10.2794,5.12616 10.4254,4.99817 10.5994,4.99817L 13.3994,4.99817C 13.5734,4.99817 13.7184,5.12616 13.7454,5.29315L 14.0074,7.14716C 14.4344,7.32416 14.8294,7.55914 15.1904,7.83612L 16.9334,7.13312C 17.0914,7.07312 17.2744,7.13416 17.3614,7.28613L 18.7614,9.71014C 18.8494,9.86212 18.8094,10.0511 18.6794,10.1572L 17.1994,11.3151C 17.2284,11.5391 17.2494,11.7662 17.2494,11.9982 Z M 18.9994,2.99817L 4.99939,2.99817C 3.89438,2.99817 2.99939,3.89417 2.99939,4.99817L 2.99939,18.9982C 2.99939,20.1022 3.89438,20.9982 4.99939,20.9982L 18.9994,20.9982C 20.1044,20.9982 20.9994,20.1022 20.9994,18.9982L 20.9994,4.99817C 20.9994,3.89417 20.1044,2.99817 18.9994,2.99817 Z M 11.9994,9.99817C 10.8944,9.99817 9.99939,10.8942 9.99939,11.9982C 9.99939,13.1022 10.8944,13.9982 11.9994,13.9982C 13.1034,13.9982 13.9994,13.1022 13.9994,11.9982C 13.9994,10.8942 13.1034,9.99817 11.9994,9.99817 Z "/>
</svg>

<svg xmlns="http://www.w3.org/2000/svg" version="1.1" baseProfile="full" width="24" height="24" viewBox="0 0 24.00 24.00" xml:space="preserve"><path fill="#000" fill-opacity="1" stroke-width=".2" stroke-linejoin="round" d="M17.25 11.998c0 .232-.022.46-.05.683l1.48 1.16c.13.105.17.294.08.446l-1.4 2.424c-.086.152-.27.213-.427.153l-1.744-.703c-.36.277-.756.51-1.183.688l-.262 1.855c-.027.167-.172.295-.346.295h-2.8c-.175 0-.32-.128-.347-.295l-.262-1.855c-.426-.176-.82-.41-1.182-.688l-1.743.703c-.158.06-.34 0-.428-.153l-1.4-2.424c-.088-.152-.05-.34.082-.447l1.478-1.16c-.03-.223-.05-.45-.05-.682 0-.232.02-.46.05-.683l-1.48-1.158c-.13-.106-.17-.295-.08-.447l1.4-2.424c.087-.152.27-.213.427-.153l1.743.703c.36-.278.756-.512 1.183-.69l.263-1.853c.026-.167.172-.295.346-.295h2.8c.173 0 .318.128.345.295l.262 1.854c.427.177.822.412 1.183.69l1.743-.704c.158-.06.34 0 .428.153l1.4 2.424c.09.152.05.34-.08.447l-1.48 1.158c.028.224.05.45.05.683zm1.75-9H5c-1.106 0-2 .896-2 2v14c0 1.104.894 2 2 2h14c1.104 0 2-.896 2-2v-14c0-1.104-.896-2-2-2zm-7 7c-1.106 0-2 .896-2 2s.894 2 2 2c1.103 0 2-.896 2-2s-.897-2-2-2z"/></svg>
